;FLAVOR:Marlin
;TIME:14566
;Filament used: 13.2951m
;Layer height: 0.15
;MINX:52.378
;MINY:22.378
;MINZ:0.3
;MAXX:172.622
;MAXY:122.622
;MAXZ:19.95
;Generated with Cura_SteamEngine 4.13.1
M140 S60
M105
M190 S60
M104 S200
M105
M109 S200
M82 ;absolute extrusion mode
G28 ;Home
G1 Z15.0 F6000 ;Move the platform down 15mm
;Prime the extruder
G92 E0
G1 F200 E3
G92 E0
G92 E0
G92 E0
G1 F1500 E-6.5
;LAYER_COUNT:132
;LAYER:0
M107
G0 F3600 X53.357 Y26.395 Z0.3
;TYPE:SKIRT
G1 F1500 E0
G1 F1800 X53.775 Y25.724 E0.03944
G1 X54.258 Y25.1 E0.07881
G1 X54.801 Y24.527 E0.11819
G1 X55.4 Y24.012 E0.1576
G1 X56.048 Y23.561 E0.19699
G1 X56.739 Y23.177 E0.23643
G1 X57.464 Y22.865 E0.27581
G1 X58.217 Y22.628 E0.31519
G1 X58.991 Y22.469 E0.35461
G1 X59.776 Y22.388 E0.39399
G1 X60.178 Y22.378 E0.41405
G1 X74.822 Y22.378 E1.14464
G1 X75.611 Y22.418 E1.18405
G1 X76.391 Y22.537 E1.22342
G1 X77.156 Y22.735 E1.26284
G1 X77.487 Y22.858 E1.28046
G1 X78.217 Y22.628 E1.31864
G1 X78.991 Y22.469 E1.35807
G1 X79.776 Y22.388 E1.39744
G1 X80.178 Y22.378 E1.4175
G1 X94.822 Y22.378 E2.14809
G1 X95.611 Y22.418 E2.18751
G1 X96.391 Y22.537 E2.22687
G1 X97.156 Y22.735 E2.26629
G1 X97.487 Y22.858 E2.28391
G1 X98.217 Y22.628 E2.3221
G1 X98.991 Y22.469 E2.36152
G1 X99.776 Y22.388 E2.40089
G1 X100.178 Y22.378 E2.42095
G1 X114.822 Y22.378 E3.15154
G1 X115.611 Y22.418 E3.19096
G1 X116.391 Y22.537 E3.23032
G1 X117.156 Y22.735 E3.26975
G1 X117.487 Y22.858 E3.28736
G1 X118.217 Y22.628 E3.32555
G1 X118.991 Y22.469 E3.36497
G1 X119.776 Y22.388 E3.40434
G1 X120.178 Y22.378 E3.4244
G1 X134.822 Y22.378 E4.15499
G1 X135.611 Y22.418 E4.19441
G1 X136.391 Y22.537 E4.23377
G1 X137.156 Y22.735 E4.2732
G1 X137.896 Y23.009 E4.31256
G1 X138.605 Y23.357 E4.35197
G1 X139.276 Y23.775 E4.39141
G1 X139.9 Y24.258 E4.43078
G1 X140.473 Y24.801 E4.47016
G1 X140.988 Y25.4 E4.50957
G1 X141.439 Y26.048 E4.54896
G1 X141.823 Y26.739 E4.5884
G1 X142.135 Y27.464 E4.62778
G1 X142.372 Y28.217 E4.66716
G1 X142.531 Y28.991 E4.70658
G1 X142.612 Y29.776 E4.74595
G1 X142.622 Y30.178 E4.76602
G1 X142.622 Y44.822 E5.49661
G1 X142.582 Y45.611 E5.53602
G1 X142.463 Y46.391 E5.57539
G1 X142.265 Y47.156 E5.61481
G1 X142.254 Y47.185 E5.61636
G1 X142.605 Y47.357 E5.63586
G1 X143.276 Y47.775 E5.6753
G1 X143.9 Y48.258 E5.71467
G1 X144.473 Y48.801 E5.75405
G1 X144.988 Y49.4 E5.79346
G1 X145.439 Y50.048 E5.83285
G1 X145.823 Y50.739 E5.87229
G1 X146.135 Y51.464 E5.91167
G1 X146.372 Y52.217 E5.95105
G1 X146.531 Y52.991 E5.99047
G1 X146.56 Y53.276 E6.00477
G1 X146.739 Y53.177 E6.01497
G1 X147.464 Y52.865 E6.05435
G1 X148.217 Y52.628 E6.09373
G1 X148.991 Y52.469 E6.13315
G1 X149.776 Y52.388 E6.17253
G1 X150.178 Y52.378 E6.19259
G1 X164.822 Y52.378 E6.92318
G1 X165.611 Y52.418 E6.96259
G1 X166.391 Y52.537 E7.00196
G1 X167.156 Y52.735 E7.04138
G1 X167.896 Y53.009 E7.08075
G1 X168.605 Y53.357 E7.12015
G1 X169.276 Y53.775 E7.15959
G1 X169.9 Y54.258 E7.19896
G1 X170.473 Y54.801 E7.23835
G1 X170.988 Y55.4 E7.27776
G1 X171.439 Y56.048 E7.31714
G1 X171.823 Y56.739 E7.35658
G1 X172.135 Y57.464 E7.39596
G1 X172.372 Y58.217 E7.43535
G1 X172.531 Y58.991 E7.47477
G1 X172.612 Y59.776 E7.51414
G1 X172.622 Y60.178 E7.5342
G1 X172.622 Y74.822 E8.26479
G1 X172.582 Y75.611 E8.30421
G1 X172.463 Y76.391 E8.34357
G1 X172.265 Y77.156 E8.383
G1 X172.142 Y77.487 E8.40061
G1 X172.372 Y78.217 E8.4388
G1 X172.531 Y78.991 E8.47822
G1 X172.612 Y79.776 E8.51759
G1 X172.622 Y80.178 E8.53765
G1 X172.622 Y94.822 E9.26824
G1 X172.582 Y95.611 E9.30766
G1 X172.463 Y96.391 E9.34702
G1 X172.265 Y97.156 E9.38645
G1 X172.142 Y97.487 E9.40406
G1 X172.372 Y98.217 E9.44225
G1 X172.531 Y98.991 E9.48167
G1 X172.612 Y99.776 E9.52104
G1 X172.622 Y100.178 E9.5411
G1 X172.622 Y114.822 E10.2717
G1 X172.582 Y115.611 E10.31111
G1 X172.463 Y116.391 E10.35047
G1 X172.265 Y117.156 E10.3899
G1 X171.991 Y117.896 E10.42927
G1 X171.643 Y118.605 E10.46867
G1 X171.225 Y119.276 E10.50811
G1 X170.742 Y119.9 E10.54748
G1 X170.199 Y120.473 E10.58686
G1 X169.6 Y120.988 E10.62627
G1 X168.952 Y121.439 E10.66566
G1 X168.261 Y121.823 E10.7051
G1 X167.536 Y122.135 E10.74448
G1 X166.783 Y122.372 E10.78386
G1 X166.009 Y122.531 E10.82328
G1 X165.224 Y122.612 E10.86266
G1 X164.822 Y122.622 E10.88272
G1 X150.178 Y122.622 E11.61331
G1 X149.389 Y122.582 E11.65272
G1 X148.609 Y122.463 E11.69209
G1 X147.844 Y122.265 E11.73151
G1 X147.104 Y121.991 E11.77088
G1 X146.395 Y121.643 E11.81028
G1 X145.724 Y121.225 E11.84972
G1 X145.1 Y120.742 E11.88909
G1 X144.527 Y120.199 E11.92848
G1 X144.012 Y119.6 E11.96789
G1 X143.561 Y118.952 E12.00728
G1 X143.177 Y118.261 E12.04672
G1 X142.865 Y117.536 E12.08609
G1 X142.628 Y116.783 E12.12548
G1 X142.469 Y116.009 E12.1649
G1 X142.388 Y115.224 E12.20427
G1 X142.378 Y114.822 E12.22433
G1 X142.378 Y102.622 E12.83299
G1 X130.178 Y102.622 E13.44165
G1 X129.389 Y102.582 E13.48107
G1 X128.609 Y102.463 E13.52043
G1 X127.844 Y102.265 E13.55986
G1 X127.104 Y101.991 E13.59922
G1 X126.622 Y101.754 E13.62602
G1 X126.622 Y108.822 E13.97864
G1 X126.582 Y109.611 E14.01806
G1 X126.463 Y110.391 E14.05742
G1 X126.265 Y111.156 E14.09685
G1 X125.991 Y111.896 E14.13621
G1 X125.643 Y112.605 E14.17562
G1 X125.225 Y113.276 E14.21506
G1 X124.742 Y113.9 E14.25443
G1 X124.199 Y114.473 E14.29381
G1 X123.6 Y114.988 E14.33322
G1 X122.952 Y115.439 E14.37261
G1 X122.261 Y115.823 E14.41205
G1 X121.536 Y116.135 E14.45143
G1 X120.783 Y116.372 E14.49081
G1 X120.009 Y116.531 E14.53023
G1 X119.224 Y116.612 E14.5696
G1 X118.822 Y116.622 E14.58967
G1 X104.178 Y116.622 E15.32026
G1 X103.389 Y116.582 E15.35967
G1 X102.609 Y116.463 E15.39904
G1 X101.844 Y116.265 E15.43846
G1 X101.104 Y115.991 E15.47783
G1 X100.395 Y115.643 E15.51723
G1 X99.724 Y115.225 E15.55667
G1 X99.1 Y114.742 E15.59604
G1 X98.527 Y114.199 E15.63542
G1 X98.012 Y113.6 E15.67484
G1 X97.561 Y112.952 E15.71422
G1 X97.177 Y112.261 E15.75366
G1 X96.865 Y111.536 E15.79304
G1 X96.628 Y110.783 E15.83243
G1 X96.469 Y110.009 E15.87185
G1 X96.388 Y109.224 E15.91122
G1 X96.378 Y108.822 E15.93128
G1 X96.378 Y96.455 E16.54827
G1 X96.009 Y96.531 E16.56707
G1 X95.224 Y96.612 E16.60644
G1 X94.822 Y96.622 E16.6265
G1 X82.622 Y96.622 E17.23516
G1 X82.622 Y108.822 E17.84382
G1 X82.582 Y109.611 E17.88324
G1 X82.463 Y110.391 E17.9226
G1 X82.265 Y111.156 E17.96203
G1 X81.991 Y111.896 E18.00139
G1 X81.643 Y112.605 E18.0408
G1 X81.225 Y113.276 E18.08024
G1 X80.742 Y113.9 E18.11961
G1 X80.199 Y114.473 E18.15899
G1 X79.6 Y114.988 E18.1984
G1 X78.952 Y115.439 E18.23779
G1 X78.261 Y115.823 E18.27723
G1 X77.536 Y116.135 E18.31661
G1 X76.783 Y116.372 E18.35599
G1 X76.009 Y116.531 E18.39541
G1 X75.224 Y116.612 E18.43478
G1 X74.822 Y116.622 E18.45485
G1 X60.178 Y116.622 E19.18544
G1 X59.389 Y116.582 E19.22485
G1 X58.609 Y116.463 E19.26422
G1 X57.844 Y116.265 E19.30364
G1 X57.104 Y115.991 E19.34301
G1 X56.395 Y115.643 E19.38241
G1 X55.724 Y115.225 E19.42185
G1 X55.1 Y114.742 E19.46122
G1 X54.527 Y114.199 E19.5006
G1 X54.012 Y113.6 E19.54001
G1 X53.561 Y112.952 E19.5794
G1 X53.177 Y112.261 E19.61884
G1 X52.865 Y111.536 E19.65822
G1 X52.628 Y110.783 E19.6976
G1 X52.469 Y110.009 E19.73703
G1 X52.388 Y109.224 E19.7764
G1 X52.378 Y108.822 E19.79646
G1 X52.378 Y94.178 E20.52705
G1 X52.418 Y93.389 E20.56647
G1 X52.537 Y92.609 E20.60583
G1 X52.735 Y91.844 E20.64525
G1 X52.858 Y91.513 E20.66287
G1 X52.628 Y90.783 E20.70106
G1 X52.469 Y90.009 E20.74048
G1 X52.388 Y89.224 E20.77985
G1 X52.378 Y88.822 E20.79991
G1 X52.378 Y74.178 E21.5305
G1 X52.418 Y73.389 E21.56992
G1 X52.537 Y72.609 E21.60928
G1 X52.735 Y71.844 E21.64871
G1 X53.009 Y71.104 E21.68807
G1 X53.357 Y70.395 E21.72748
G1 X53.775 Y69.724 E21.76692
G1 X54.258 Y69.1 E21.80629
G1 X54.801 Y68.527 E21.84567
G1 X55.4 Y68.012 E21.88508
G1 X56.048 Y67.561 E21.92447
G1 X56.739 Y67.177 E21.96391
G1 X57.464 Y66.865 E22.00329
G1 X58.217 Y66.628 E22.04267
G1 X58.991 Y66.469 E22.08209
G1 X59.776 Y66.388 E22.12146
G1 X60.178 Y66.378 E22.14152
G1 X72.378 Y66.378 E22.75019
G1 X72.378 Y54.178 E23.35885
G1 X72.418 Y53.389 E23.39826
G1 X72.535 Y52.622 E23.43697
G1 X60.178 Y52.622 E24.05346
G1 X59.389 Y52.582 E24.09288
G1 X58.609 Y52.463 E24.13224
G1 X57.844 Y52.265 E24.17166
G1 X57.104 Y51.991 E24.21103
G1 X56.395 Y51.643 E24.25044
G1 X55.724 Y51.225 E24.28988
G1 X55.1 Y50.742 E24.32924
G1 X54.527 Y50.199 E24.36863
G1 X54.012 Y49.6 E24.40804
G1 X53.561 Y48.952 E24.44743
G1 X53.177 Y48.261 E24.48687
G1 X52.865 Y47.536 E24.52624
G1 X52.628 Y46.783 E24.56563
G1 X52.469 Y46.009 E24.60505
G1 X52.388 Y45.224 E24.64442
G1 X52.378 Y44.822 E24.66448
G1 X52.378 Y30.178 E25.39508
G1 X52.418 Y29.389 E25.43449
G1 X52.537 Y28.609 E25.47385
G1 X52.735 Y27.844 E25.51328
G1 X53.009 Y27.104 E25.55265
G1 X53.357 Y26.395 E25.59205
G0 F3600 X53.756 Y26.502
G1 F1800 X54.172 Y25.855 E25.63042
G1 X54.653 Y25.255 E25.66879
G1 X55.194 Y24.708 E25.70717
G1 X55.789 Y24.22 E25.74556
G1 X56.431 Y23.797 E25.78392
G1 X57.114 Y23.442 E25.82232
G1 X57.829 Y23.161 E25.86065
G1 X58.571 Y22.955 E25.89907
G1 X59.329 Y22.827 E25.93742
G1 X60.178 Y22.778 E25.97985
G1 X74.822 Y22.778 E26.71044
G1 X75.59 Y22.818 E26.74881
G1 X76.35 Y22.937 E26.78719
G1 X77.093 Y23.135 E26.82555
G1 X77.5 Y23.29 E26.84728
G1 X77.829 Y23.161 E26.86491
G1 X78.571 Y22.955 E26.90333
G1 X79.329 Y22.827 E26.94168
G1 X80.178 Y22.778 E26.98411
G1 X94.822 Y22.778 E27.7147
G1 X95.59 Y22.818 E27.75307
G1 X96.35 Y22.937 E27.79145
G1 X97.093 Y23.135 E27.82981
G1 X97.5 Y23.29 E27.85154
G1 X97.829 Y23.161 E27.86917
G1 X98.571 Y22.955 E27.90758
G1 X99.329 Y22.827 E27.94594
G1 X100.178 Y22.778 E27.98836
G1 X114.822 Y22.778 E28.71896
G1 X115.59 Y22.818 E28.75732
G1 X116.35 Y22.937 E28.7957
G1 X117.093 Y23.135 E28.83406
G1 X117.5 Y23.29 E28.85579
G1 X117.829 Y23.161 E28.87342
G1 X118.571 Y22.955 E28.91184
G1 X119.329 Y22.827 E28.95019
G1 X120.178 Y22.778 E28.99262
G1 X134.822 Y22.778 E29.72321
G1 X135.59 Y22.818 E29.76158
G1 X136.35 Y22.937 E29.79996
G1 X137.093 Y23.135 E29.83832
G1 X137.812 Y23.409 E29.87671
G1 X138.498 Y23.756 E29.91506
G1 X139.145 Y24.172 E29.95344
G1 X139.745 Y24.653 E29.9918
G1 X140.292 Y25.194 E30.03019
G1 X140.78 Y25.789 E30.06858
G1 X141.203 Y26.431 E30.10694
G1 X141.558 Y27.114 E30.14534
G1 X141.839 Y27.829 E30.18367
G1 X142.045 Y28.571 E30.22208
G1 X142.173 Y29.329 E30.26044
G1 X142.222 Y30.178 E30.30286
G1 X142.222 Y44.822 E31.03346
G1 X142.182 Y45.59 E31.07182
G1 X142.063 Y46.35 E31.1102
G1 X141.865 Y47.093 E31.14856
G1 X141.753 Y47.387 E31.16426
G1 X141.812 Y47.409 E31.1674
G1 X142.498 Y47.756 E31.20576
G1 X143.145 Y48.172 E31.24413
G1 X143.745 Y48.653 E31.2825
G1 X144.292 Y49.194 E31.32088
G1 X144.78 Y49.789 E31.35927
G1 X145.203 Y50.431 E31.39763
G1 X145.558 Y51.114 E31.43603
G1 X145.839 Y51.829 E31.47436
G1 X146.045 Y52.571 E31.51278
G1 X146.173 Y53.329 E31.55113
G1 X146.208 Y53.944 E31.58186
G1 X146.431 Y53.797 E31.59519
G1 X147.114 Y53.442 E31.63359
G1 X147.829 Y53.161 E31.67192
G1 X148.571 Y52.955 E31.71034
G1 X149.329 Y52.827 E31.74869
G1 X150.178 Y52.778 E31.79112
G1 X164.822 Y52.778 E32.52171
G1 X165.59 Y52.818 E32.56007
G1 X166.35 Y52.937 E32.59845
G1 X167.093 Y53.135 E32.63682
G1 X167.812 Y53.409 E32.6752
G1 X168.498 Y53.756 E32.71356
G1 X169.145 Y54.172 E32.75193
G1 X169.745 Y54.653 E32.7903
G1 X170.292 Y55.194 E32.82868
G1 X170.78 Y55.789 E32.86707
G1 X171.203 Y56.431 E32.90543
G1 X171.558 Y57.114 E32.94383
G1 X171.839 Y57.829 E32.98216
G1 X172.045 Y58.571 E33.02058
G1 X172.173 Y59.329 E33.05893
G1 X172.222 Y60.178 E33.10136
G1 X172.222 Y74.822 E33.83195
G1 X172.182 Y75.59 E33.87032
G1 X172.063 Y76.35 E33.9087
G1 X171.865 Y77.093 E33.94706
G1 X171.71 Y77.5 E33.96879
G1 X171.839 Y77.829 E33.98642
G1 X172.045 Y78.571 E34.02484
G1 X172.173 Y79.329 E34.06319
G1 X172.222 Y80.178 E34.10561
G1 X172.222 Y94.822 E34.83621
G1 X172.182 Y95.59 E34.87457
G1 X172.063 Y96.35 E34.91295
G1 X171.865 Y97.093 E34.95132
G1 X171.71 Y97.5 E34.97304
G1 X171.839 Y97.829 E34.99067
G1 X172.045 Y98.571 E35.02909
G1 X172.173 Y99.329 E35.06744
G1 X172.222 Y100.178 E35.10987
G1 X172.222 Y114.822 E35.84046
G1 X172.182 Y115.59 E35.87883
G1 X172.063 Y116.35 E35.91721
G1 X171.865 Y117.093 E35.95557
G1 X171.591 Y117.812 E35.99396
G1 X171.244 Y118.498 E36.03231
G1 X170.828 Y119.145 E36.07069
G1 X170.347 Y119.745 E36.10905
G1 X169.806 Y120.292 E36.14744
G1 X169.211 Y120.78 E36.18583
G1 X168.569 Y121.203 E36.22419
G1 X167.886 Y121.558 E36.26259
G1 X167.171 Y121.839 E36.30092
G1 X166.429 Y122.045 E36.33934
G1 X165.671 Y122.173 E36.37769
G1 X164.822 Y122.222 E36.42011
G1 X150.178 Y122.222 E37.15071
G1 X149.41 Y122.182 E37.18907
G1 X148.65 Y122.063 E37.22745
G1 X147.907 Y121.865 E37.26581
G1 X147.188 Y121.591 E37.3042
G1 X146.502 Y121.244 E37.34256
G1 X145.855 Y120.828 E37.38093
G1 X145.255 Y120.347 E37.4193
G1 X144.708 Y119.806 E37.45768
G1 X144.22 Y119.211 E37.49607
G1 X143.797 Y118.569 E37.53443
G1 X143.442 Y117.886 E37.57283
G1 X143.161 Y117.171 E37.61116
G1 X142.955 Y116.429 E37.64958
G1 X142.827 Y115.671 E37.68793
G1 X142.778 Y114.822 E37.73036
G1 X142.778 Y102.222 E38.35897
G1 X130.178 Y102.222 E38.98759
G1 X129.41 Y102.182 E39.02596
G1 X128.65 Y102.063 E39.06434
G1 X127.907 Y101.865 E39.1027
G1 X127.188 Y101.591 E39.14109
G1 X126.502 Y101.244 E39.17944
G1 X126.222 Y101.064 E39.19605
G1 X126.222 Y108.822 E39.58309
G1 X126.182 Y109.59 E39.62146
G1 X126.063 Y110.35 E39.65984
G1 X125.865 Y111.093 E39.6982
G1 X125.591 Y111.812 E39.73659
G1 X125.244 Y112.498 E39.77494
G1 X124.828 Y113.145 E39.81332
G1 X124.347 Y113.745 E39.85169
G1 X123.806 Y114.292 E39.89007
G1 X123.211 Y114.78 E39.92846
G1 X122.569 Y115.203 E39.96682
G1 X121.886 Y115.558 E40.00522
G1 X121.171 Y115.839 E40.04355
G1 X120.429 Y116.045 E40.08197
G1 X119.671 Y116.173 E40.12032
G1 X118.822 Y116.222 E40.16275
G1 X104.178 Y116.222 E40.89334
G1 X103.41 Y116.182 E40.93171
G1 X102.65 Y116.063 E40.97008
G1 X101.907 Y115.865 E41.00845
G1 X101.188 Y115.591 E41.04683
G1 X100.502 Y115.244 E41.08519
G1 X99.855 Y114.828 E41.12356
G1 X99.255 Y114.347 E41.16193
G1 X98.708 Y113.806 E41.20031
G1 X98.22 Y113.211 E41.2387
G1 X97.797 Y112.569 E41.27706
G1 X97.442 Y111.886 E41.31546
G1 X97.161 Y111.171 E41.35379
G1 X96.955 Y110.429 E41.39221
G1 X96.827 Y109.671 E41.43056
G1 X96.778 Y108.822 E41.47299
G1 X96.778 Y95.948 E42.11527
G1 X96.429 Y96.045 E42.13335
G1 X95.671 Y96.173 E42.1717
G1 X94.822 Y96.222 E42.21413
G1 X82.222 Y96.222 E42.84274
G1 X82.222 Y108.822 E43.47136
G1 X82.182 Y109.59 E43.50973
G1 X82.063 Y110.35 E43.54811
G1 X81.865 Y111.093 E43.58647
G1 X81.591 Y111.812 E43.62485
G1 X81.244 Y112.498 E43.66321
G1 X80.828 Y113.145 E43.70158
G1 X80.347 Y113.745 E43.73995
G1 X79.806 Y114.292 E43.77833
G1 X79.211 Y114.78 E43.81672
G1 X78.569 Y115.203 E43.85508
G1 X77.886 Y115.558 E43.89348
G1 X77.171 Y115.839 E43.93181
G1 X76.429 Y116.045 E43.97023
G1 X75.671 Y116.173 E44.00858
G1 X74.822 Y116.222 E44.05101
G1 X60.178 Y116.222 E44.7816
G1 X59.41 Y116.182 E44.81997
G1 X58.65 Y116.063 E44.85835
G1 X57.907 Y115.865 E44.89671
G1 X57.188 Y115.591 E44.9351
G1 X56.502 Y115.244 E44.97345
G1 X55.855 Y114.828 E45.01183
G1 X55.255 Y114.347 E45.05019
G1 X54.708 Y113.806 E45.08858
G1 X54.22 Y113.211 E45.12697
G1 X53.797 Y112.569 E45.16532
G1 X53.442 Y111.886 E45.20373
G1 X53.161 Y111.171 E45.24205
G1 X52.955 Y110.429 E45.28047
G1 X52.827 Y109.671 E45.31882
G1 X52.778 Y108.822 E45.36125
G1 X52.778 Y94.178 E46.09184
G1 X52.818 Y93.41 E46.13021
G1 X52.937 Y92.65 E46.16859
G1 X53.135 Y91.907 E46.20695
G1 X53.29 Y91.5 E46.22868
G1 X53.161 Y91.171 E46.24631
G1 X52.955 Y90.429 E46.28473
G1 X52.827 Y89.671 E46.32308
G1 X52.778 Y88.822 E46.36551
G1 X52.778 Y74.178 E47.0961
G1 X52.818 Y73.41 E47.13447
G1 X52.937 Y72.65 E47.17285
G1 X53.135 Y71.907 E47.21121
G1 X53.409 Y71.188 E47.2496
G1 X53.756 Y70.502 E47.28795
G1 X54.172 Y69.855 E47.32633
G1 X54.653 Y69.255 E47.36469
G1 X55.194 Y68.708 E47.40307
G1 X55.789 Y68.22 E47.44147
G1 X56.431 Y67.797 E47.47982
G1 X57.114 Y67.442 E47.51823
G1 X57.829 Y67.161 E47.55655
G1 X58.571 Y66.955 E47.59497
G1 X59.329 Y66.827 E47.63332
G1 X60.178 Y66.778 E47.67575
G1 X72.778 Y66.778 E48.30437
G1 X72.778 Y54.178 E48.93298
